X:21
T:ROND DE LOUDEAC 15
Z: Yves Belotteau
M:4/4
L:1/8
Q:1/4=120
K:G 
|GFGA GFE3/2G/2|GFGA B3/2 z/2 A3/2 z/2 |GFGA GFE3/2G/2|GFGA B3/2 z/2 A3/
2 z/2 |
BABc BAB3/2 z/2 |G3/2 z/2 FG AG/2F/2E3/2B/2|BABc BAB3/2 z/2 |G3/2 z/2 FG
 AG/2F/2E3/2B/2|
